X: 1
T: reel du Nord
O: Qu\'ebec
R: reel
Z: 2012 John Chambers <jc:trillian.mit.edu>
M: 2/4
L: 1/16
K: Bm
|:\
"Bm"FBBB FBBB  | FBdB "A"c3B | "Bm"FBBB FBBd |1,3 "F#7"fedc B3A :|2,4 "F#7"fedc B2BA :|
|:\
"A7"Acec Acec | "D"dcdf a4 | "A7"Acec Acec |1,3 "D"defd A2B{c}B :|2,4 "D"df"A7"ec "D"d2B{c}B :|
